icons/svg/subway/subway_istanbul.svg

<?xml version="1.0" encoding="UTF-8" standalone="no"?>
<svg
   xmlns:dc="http://purl.org/dc/elements/1.1/"
   xmlns:cc="http://creativecommons.org/ns#"
   xmlns:rdf="http://www.w3.org/1999/02/22-rdf-syntax-ns#"
   xmlns:svg="http://www.w3.org/2000/svg"
   xmlns="http://www.w3.org/2000/svg"
   xmlns:sodipodi="http://sodipodi.sourceforge.net/DTD/sodipodi-0.dtd"
   xmlns:inkscape="http://www.inkscape.org/namespaces/inkscape"
   width="16"
   height="16"
   id="svg2"
   version="1.1"
   inkscape:version="0.91 r13725"
   sodipodi:docname="subway_istanbul.svg">
  <defs
     id="defs13">
    <linearGradient
       gradientTransform="matrix(0.08596979,0,0,0.08596979,0.67480439,1.9432845)"
       x1="87.101639"
       y1="121.69753"
       x2="87.260849"
       y2="1.2385538"
       id="l1"
       gradientUnits="userSpaceOnUse">
      <stop
         style="stop-color:#e92203;stop-opacity:1"
         offset="0"
         id="stop5" />
      <stop
         style="stop-color:#ff0000;stop-opacity:0.64628822"
         offset="1"
         id="stop7" />
    </linearGradient>
    <linearGradient
       gradientTransform="matrix(0.08400469,0,0,0.08400469,0.8422306,2.0814238)"
       x1="87.101639"
       y1="121.69753"
       x2="87.260849"
       y2="1.2385538"
       id="l1-2"
       gradientUnits="userSpaceOnUse">
      <stop
         style="stop-color:#e92203;stop-opacity:1"
         offset="0"
         id="stop5-8" />
      <stop
         style="stop-color:#ff0000;stop-opacity:0.64628822"
         offset="1"
         id="stop7-4" />
    </linearGradient>
  </defs>
  <sodipodi:namedview
     pagecolor="#ffffff"
     bordercolor="#666666"
     borderopacity="1"
     objecttolerance="10"
     gridtolerance="10"
     guidetolerance="10"
     inkscape:pageopacity="0"
     inkscape:pageshadow="2"
     inkscape:window-width="1920"
     inkscape:window-height="1006"
     id="namedview11"
     showgrid="true"
     inkscape:zoom="45.254834"
     inkscape:cx="7.9603503"
     inkscape:cy="7.4991015"
     inkscape:window-x="1920"
     inkscape:window-y="0"
     inkscape:window-maximized="1"
     inkscape:current-layer="svg2"
     showguides="false"
     inkscape:snap-global="false">
    <sodipodi:guide
       position="0,0"
       orientation="0,580"
       id="guide2989" />
    <sodipodi:guide
       position="580,0"
       orientation="-580,0"
       id="guide2991" />
    <sodipodi:guide
       position="580,580"
       orientation="0,-580"
       id="guide2993" />
    <sodipodi:guide
       position="0,580"
       orientation="580,0"
       id="guide2995" />
    <sodipodi:guide
       position="0,0"
       orientation="0,580"
       id="guide2997" />
    <sodipodi:guide
       position="580,0"
       orientation="-580,0"
       id="guide2999" />
    <sodipodi:guide
       position="580,580"
       orientation="0,-580"
       id="guide3001" />
    <sodipodi:guide
       position="0,580"
       orientation="580,0"
       id="guide3003" />
    <inkscape:grid
       type="xygrid"
       id="grid3013"
       empspacing="5"
       visible="true"
       enabled="true"
       snapvisiblegridlinesonly="true" />
  </sodipodi:namedview>
  <metadata
     id="metadata2975">image/svg+xmlen<rdf:RDF>
  <cc:Work
     rdf:about="">
    <dc:format>image/svg+xml</dc:format>
    <dc:type
       rdf:resource="http://purl.org/dc/dcmitype/StillImage" />
    <dc:title />
  </cc:Work>
</rdf:RDF>
</metadata>
  <path
     sodipodi:type="inkscape:offset"
     inkscape:radius="0.68851674"
     inkscape:original="M 7.8867188 4.1679688 C 7.4410231 4.1836216 6.9943793 4.2910382 6.5800781 4.4941406 C 6.2889143 4.6368777 5.827046 4.9616067 5.84375 5.0117188 C 6.6314055 5.6174223 7.9804688 6.609375 7.9804688 6.609375 C 7.9804686 6.609375 9.4188534 5.5972153 10.138672 4.9785156 C 10.126702 4.9640956 10.053842 4.9021476 9.9765625 4.8417969 C 9.3729117 4.3704322 8.6295448 4.1418807 7.8867188 4.1679688 z M 10.228516 5.0605469 C 10.201366 6.5971034 10.216236 8.1388641 10.228516 9.6738281 C 10.250326 9.6738281 10.519542 9.380929 10.638672 9.2148438 C 10.782145 9.0148211 10.976206 8.6241736 11.054688 8.3769531 C 11.268773 7.7026022 11.268774 7.051304 11.054688 6.3769531 C 10.976468 6.1305663 10.782159 5.7398303 10.640625 5.5429688 C 10.513528 5.3661892 10.252786 5.0605469 10.228516 5.0605469 z M 5.7539062 5.078125 C 5.7306412 5.078125 5.4839128 5.369002 5.3574219 5.5449219 C 5.217285 5.7398204 5.0232243 6.1315385 4.9453125 6.3769531 C 4.6818675 7.2067812 4.7440772 8.0410179 5.1269531 8.8125 C 5.2582677 9.0770938 5.3976835 9.2855896 5.6054688 9.5234375 C 5.6786466 9.6072023 5.7698656 9.6858762 5.7695312 9.6757812 C 5.7679973 9.6295398 5.7750103 5.078125 5.7539062 5.078125 z M 6.5429688 6.7167969 L 6.5429688 9.6835938 L 5.4179688 9.6933594 L 8.0039062 11.833984 L 10.484375 9.6894531 L 9.4179688 9.6992188 L 9.4179688 6.7167969 L 7.9375 7.7148438 L 6.5429688 6.7167969 z "
     style="fill:#fefefe;fill-opacity:1"
     id="path4198"
     d="M 7.8632812,3.4804688 C 7.3232891,3.4994332 6.781107,3.6280407 6.2773438,3.875 6.0756649,3.9738689 5.8769127,4.1010672 5.7011719,4.2246094 5.6133014,4.2863805 5.5356496,4.3432298 5.4589844,4.4101562 c -0.031416,0.027425 -0.06597,0.0633 -0.1054688,0.1074219 -7.247e-4,8.095e-4 -0.00122,0.00113 -0.00195,0.00195 -0.040245,0.028301 -0.059615,0.045647 -0.076172,0.060547 -0.034048,0.03064 -0.054783,0.051594 -0.076172,0.074219 -0.042778,0.04525 -0.083451,0.092941 -0.1289063,0.1464843 C 4.9794026,4.9078687 4.8809407,5.0283783 4.7988281,5.1425781 4.5793026,5.4478881 4.4028099,5.8096753 4.2890625,6.1679688 3.9758894,7.1544359 4.0522269,8.1972154 4.5097656,9.1191406 4.5766094,9.2538282 4.6812135,9.3677833 4.7617188,9.4921875 a 0.68858559,0.68858559 0 0 0 0.2167968,0.7324215 l 2.5859375,2.140625 a 0.68858559,0.68858559 0 0 0 0.890625,-0.0098 l 2.4804689,-2.144531 a 0.68858559,0.68858559 0 0 0 0.234375,-0.5625005 c 0.0088,-0.011793 0.01877,-0.021252 0.02734,-0.033203 0.21955,-0.3060865 0.399441,-0.6694661 0.513672,-1.0292969 0.252771,-0.7962108 0.252773,-1.6217563 0,-2.4179687 C 11.596736,5.8082438 11.418468,5.4455816 11.199219,5.140625 11.115187,5.0237453 11.014552,4.8998957 10.919922,4.7890625 10.872607,4.7336459 10.829285,4.683173 10.785156,4.6367188 c -0.02206,-0.023227 -0.04382,-0.045396 -0.07813,-0.076172 -0.01715,-0.015388 -0.0356,-0.030908 -0.07813,-0.060547 -5e-4,-3.487e-4 -0.0014,-0.0016 -0.002,-0.00195 -0.04048,-0.041997 -0.07323,-0.073402 -0.09961,-0.095703 -0.03745,-0.031665 -0.08097,-0.067608 -0.126953,-0.1035157 C 9.6657196,3.7251554 8.7631766,3.4488644 7.8632812,3.4804688 Z" />
  <path
     inkscape:connector-curvature="0"
     id="path2457"
     d="m 5.4182021,9.6937653 1.1238907,-0.00958 0,-2.9680436 1.3956997,0.9979245 1.4795741,-0.9979245 0,2.9835938 1.0667294,-0.00937 -2.4803768,2.1445752 z"
     style="fill:#e10916"
     sodipodi:nodetypes="ccccccccc" />
  <path
     inkscape:connector-curvature="0"
     id="path2455"
     d="M 5.6063857,9.5230123 C 5.3986005,9.2851644 5.2588066,9.0780322 5.127492,8.8134384 4.7446161,8.0419563 4.6822615,7.205913 4.9457065,6.3760849 5.0236183,6.1306703 5.2173,5.7395621 5.3574369,5.5446636 5.4839278,5.3687437 5.7314673,5.0779567 5.7547325,5.0779567 c 0.021104,0 0.012373,4.5520219 0.013907,4.5982634 3.343e-4,0.010095 -0.089076,-0.069443 -0.1622538,-0.1532078 z M 10.227878,5.060542 c 0.02427,0 0.285592,0.3051703 0.412689,0.4819498 0.141534,0.1968616 0.335061,0.5872063 0.41328,0.8335931 0.214087,0.6743509 0.214087,1.3269086 0,2.0012595 -0.07848,0.2472205 -0.271733,0.6366124 -0.415206,0.836635 -0.11913,0.1660853 -0.387929,0.4599839 -0.409741,0.4599839 -0.01228,-1.534964 -0.02812,-3.0768648 -9.67e-4,-4.6134213 z M 5.8441415,5.0110004 c -0.016704,-0.050112 0.4451632,-0.374643 0.736327,-0.5173801 1.1048031,-0.5416066 2.4298943,-0.4055701 3.3957356,0.3486134 0.077284,0.060351 0.1503149,0.121527 0.1622819,0.1359469 -0.7198184,0.6186997 -2.1585619,1.631853 -2.1585619,1.631853 0,0 -1.3481271,-0.9933297 -2.1357826,-1.5990332 z"
     style="fill:#012269"
     sodipodi:nodetypes="csssssccssssccccssccc" />
</svg>

<svg width="16" height="16" viewBox="0 0 16 16" fill="none" xmlns="http://www.w3.org/2000/svg">
<path d="M7.86328 3.48046C7.32329 3.49943 6.78111 3.62803 6.27734 3.87499C6.07566 3.97386 5.87691 4.10106 5.70117 4.2246C5.6133 4.28637 5.53565 4.34322 5.45898 4.41015C5.42757 4.43757 5.39301 4.47345 5.35351 4.51757C5.35279 4.51838 5.35229 4.5187 5.35156 4.51952C5.31132 4.54782 5.29195 4.56517 5.27539 4.58007C5.24134 4.61071 5.22061 4.63166 5.19922 4.65429C5.15644 4.69954 5.11577 4.74723 5.07031 4.80077C4.9794 4.90786 4.88094 5.02837 4.79883 5.14257C4.5793 5.44788 4.40281 5.80967 4.28906 6.16796C3.97589 7.15443 4.05223 8.19721 4.50976 9.11913C4.57661 9.25382 4.68121 9.36778 4.76172 9.49218C4.72153 9.62203 4.72067 9.76087 4.75925 9.89121C4.79783 10.0215 4.87412 10.1375 4.97851 10.2246L7.56445 12.3652C7.69001 12.4693 7.84846 12.5255 8.01156 12.5237C8.17467 12.5219 8.33184 12.4623 8.45508 12.3554L10.9355 10.2109C11.0152 10.1414 11.0777 10.0545 11.1183 9.95698C11.159 9.85944 11.1766 9.75385 11.1699 9.6484C11.1787 9.6366 11.1887 9.62714 11.1973 9.61519C11.4168 9.30911 11.5967 8.94573 11.7109 8.5859C11.9637 7.78968 11.9637 6.96414 11.7109 6.16793C11.5967 5.80824 11.4185 5.44557 11.1992 5.14062C11.1152 5.02374 11.0146 4.89989 10.9199 4.78906C10.8726 4.73364 10.8293 4.68317 10.7852 4.63671C10.7631 4.61348 10.7413 4.59132 10.707 4.56054C10.6899 4.54515 10.6714 4.52963 10.6289 4.49999C10.6284 4.49964 10.6275 4.49839 10.6269 4.49804C10.5864 4.45605 10.5537 4.42464 10.5273 4.40234C10.4898 4.37067 10.4463 4.33473 10.4003 4.29882C9.66572 3.72515 8.76318 3.44886 7.86328 3.48046Z" fill="#FEFEFE"/>
<path d="M5.41821 9.69378L6.5421 9.6842V6.71616L7.9378 7.71408L9.41738 6.71616V9.69975L10.4841 9.69038L8.00373 11.835L5.41821 9.69378Z" fill="#E10916"/>
<path d="M5.60638 9.52302C5.3986 9.28517 5.2588 9.07804 5.12749 8.81345C4.74461 8.04197 4.68226 7.20592 4.9457 6.37609C5.02361 6.13068 5.2173 5.73957 5.35743 5.54467C5.48392 5.36875 5.73146 5.07797 5.75473 5.07797C5.77583 5.07797 5.7671 9.62999 5.76864 9.67623C5.76897 9.68632 5.67956 9.60679 5.60638 9.52302V9.52302ZM10.2279 5.06055C10.2521 5.06055 10.5135 5.36572 10.6406 5.5425C10.7821 5.73936 10.9756 6.12971 11.0538 6.37609C11.2679 7.05045 11.2679 7.703 11.0538 8.37735C10.9754 8.62457 10.7821 9.01397 10.6386 9.21399C10.5195 9.38007 10.2507 9.67397 10.2289 9.67397C10.2166 8.13901 10.2008 6.59711 10.2279 5.06055H10.2279ZM5.84414 5.01101C5.82743 4.9609 6.2893 4.63637 6.58046 4.49363C7.68527 3.95202 9.01036 4.08806 9.9762 4.84224C10.0535 4.90259 10.1265 4.96377 10.1385 4.97819C9.41866 5.59689 7.97992 6.61004 7.97992 6.61004C7.97992 6.61004 6.63179 5.61671 5.84414 5.01101V5.01101Z" fill="#012269"/>
</svg>
